X:1
T:Learning MacPherson to Dance
T:Learning McFadden To Waltz
N:from the playing of Sally Sloane
Z:Ian Hayden 2017
L:1/8
M:3/4
K:G
BA|G2B2c2|d2e2c2|B2c2A2|G2A2Bc|d2g2g2|f2a2f2|g6-|g2>d2 ef|
|g2a2f2|g2d2B2|c2d2e2|d2B2G2|G2B2c2|d2e2c2|B2c2A2|G4 BA|
|G4g2|d6|c2B2A2|G2A2Bc|d2g2g2|f2a2f2|g6-|g2>d2 ef|
|g2a2f2|g2d2B2|c2d2e2|d2B2A2|G2B2c2|d2e2c2|B2c2A2|G6|]
